material/.icons/material/file-import.svg

<svg xmlns="http://www.w3.org/2000/svg" viewBox="0 0 24 24"><path d="M6 2a2 2 0 00-2 2v16a2 2 0 002 2h12a2 2 0 002-2V8l-6-6m-1 1.5L18.5 9H13m-2.95 2.22l2.83 2.83L15 11.93V19H7.93l2.12-2.12-2.83-2.83"/></svg>

<?xml version="1.0" encoding="UTF-8"?><!DOCTYPE svg PUBLIC "-//W3C//DTD SVG 1.1//EN" "http://www.w3.org/Graphics/SVG/1.1/DTD/svg11.dtd"><svg xmlns="http://www.w3.org/2000/svg" xmlns:xlink="http://www.w3.org/1999/xlink" version="1.1" id="mdi-file-import" width="24" height="24" viewBox="0 0 24 24"><path d="M6,2C4.89,2 4,2.9 4,4V20A2,2 0 0,0 6,22H18A2,2 0 0,0 20,20V8L14,2M13,3.5L18.5,9H13M10.05,11.22L12.88,14.05L15,11.93V19H7.93L10.05,16.88L7.22,14.05" /></svg>
